icons/lines/strongbox-two.svg

<svg xmlns="http://www.w3.org/2000/svg" width="24" height="24" viewBox="0 0 24 24" fill="none" stroke="currentColor" stroke-width="2" stroke-linecap="round" stroke-linejoin="round" >
  <path d="M9 22H15C20 22 22 20 22 15V9C22 4 20 2 15 2H9C4 2 2 4 2 9V15C2 20 4 22 9 22Z"/>
  <path d="M8 19H16C18 19 19 18 19 16V8C19 6 18 5 16 5H8C6 5 5 6 5 8V16C5 18 6 19 8 19Z"/>
  <path d="M5 9.5H7.48C8.86 9.5 9.98 10.62 9.98 12C9.98 13.38 8.86 14.5 7.48 14.5H5"/>
  <path d="M19 9.98999H16"/>
  <path d="M19 14H16"/>
  <path d="M7.2002 12H7.3002" stroke-miterlimit="10"/>
  </svg>

<svg xmlns="http://www.w3.org/2000/svg" width="24" height="24" viewBox="0 0 24 24" fill="none" stroke="currentColor" stroke-width="2" stroke-linecap="round" stroke-linejoin="round">
  <path d="M15 22c5 0 7-2 7-7V9c0-5-2-7-7-7H9C4 2 2 4 2 9v6c0 5 2 7 7 7z" />
  <path d="M16 19q3 0 3-3V8q0-3-3-3H8Q5 5 5 8v8q0 3 3 3z" />
  <path d="M19 14h-3" />
  <path d="M19 9.99h-3" />
  <path d="M5 9.5h2.48a1 1 0 0 1 0 5H5" />
  <path d="M7.2 12h.01" />
</svg>
